X:205
L:1/8
M:4/4
K:C
[M:2/2][K:Amix] .abc (gf) | eA (3.A.A.A e2 (dc) | BAGA BcdB | eA (3.A.A.A (ec)dc | BAGB Agfg | 
 eA (3.A.A.A (3(efg) (dc) | BAGA Bcdf | eaag (3(efg) dc | BAGB A2 || z2 | BGBd gfga | bgaf gedf | 
 eaab agab | c'2 (ba) gedc | BGBd gfga | bgaf gedf | eaag (3(efg) (dc) | BAGB A2 |]

